;FLAVOR:Marlin
;TIME:672
;Filament used: 0.227116m
;Layer height: 0.2
;Generated with Cura_SteamEngine 3.6.0
M140 S60
M105
M190 S60
M104 S210
M105
M109 S210
M82 ;absolute extrusion mode
G21 ;metric values
G90 ;absolute positioning
M82 ;set extruder to absolute mode
M107 ;start with the fan off
G28 X0 Y0 ;move X/Y to min endstops
G28 Z0 ;move Z to min endstops
G1 Z15.0 F9000 ;move the platform down 15mm
G92 E0 ;zero the extruded length
G1 F200 E3 ;extrude 3mm of feed stock
G92 E0 ;zero the extruded length again
G1 F9000;Put printing message on LCD screen
M117 Printing..0
G92 E0
G1 F1500 E-6.5
;LAYER_COUNT:103
;LAYER:0
M107
G0 F600 X104.201 Y104.633 Z0.3
;TYPE:SKIRT
G1 F1500 E0
G1 F1200 X104.848 Y104.049 E0.04348
G1 X105.65 Y103.439 E0.09375
G1 X106.186 Y103.081 E0.12591
G1 X106.763 Y102.793 E0.15808
G1 X107.207 Y102.627 E0.18173
G1 X107.963 Y102.384 E0.22135
G1 X108.588 Y102.226 E0.25351
G1 X109.536 Y102.135 E0.30103
G1 X110.411 Y102.132 E0.34468
G1 X111.055 Y102.17 E0.37687
G1 X111.689 Y102.287 E0.40903
G1 X112.092 Y102.405 E0.42998
G1 X112.942 Y102.692 E0.47474
G1 X113.539 Y102.936 E0.50692
G1 X114.209 Y103.323 E0.54552
G1 X114.668 Y103.636 E0.57323
G1 X115.177 Y104.031 E0.60538
G1 X115.587 Y104.436 E0.63413
G1 X116.073 Y104.971 E0.67019
G1 X116.476 Y105.474 E0.70235
G1 X116.92 Y106.233 E0.74622
G1 X117.284 Y106.998 E0.78848
G1 X117.524 Y107.596 E0.82063
G1 X117.688 Y108.219 E0.85277
G1 X117.743 Y108.547 E0.86936
G1 X117.854 Y109.382 E0.91139
G1 X117.899 Y110.025 E0.94354
G1 X117.864 Y110.669 E0.97572
G1 X117.798 Y111.089 E0.99693
G1 X117.618 Y111.987 E1.04262
G1 X117.452 Y112.61 E1.07479
G1 X117.071 Y113.479 E1.12213
G1 X116.707 Y114.138 E1.15969
G1 X116.361 Y114.682 E1.19185
G1 X115.95 Y115.179 E1.22403
G1 X115.71 Y115.419 E1.24096
G1 X115.044 Y116.043 E1.28649
G1 X114.547 Y116.453 E1.31864
G1 X114.004 Y116.8 E1.35079
G1 X113.514 Y117.038 E1.37797
G1 X112.589 Y117.429 E1.42807
G1 X111.98 Y117.642 E1.46026
G1 X111.03 Y117.818 E1.50846
G1 X110.386 Y117.876 E1.54072
G1 X109.742 Y117.894 E1.57286
G1 X108.791 Y117.773 E1.62069
G1 X107.797 Y117.552 E1.67149
G1 X107.178 Y117.373 E1.70364
G1 X106.585 Y117.119 E1.73582
G1 X106.138 Y116.865 E1.76147
G1 X105.428 Y116.414 E1.80343
G1 X104.906 Y116.036 E1.83559
G1 X104.435 Y115.595 E1.86778
G1 X104.054 Y115.143 E1.89727
G1 X103.394 Y114.262 E1.95219
G1 X103.041 Y113.723 E1.98434
G1 X102.756 Y113.144 E2.01653
G1 X102.557 Y112.575 E2.04661
G1 X102.318 Y111.74 E2.08994
G1 X102.179 Y111.11 E2.12212
G1 X102.119 Y110.468 E2.15429
G1 X102.122 Y110.074 E2.17395
G1 X102.161 Y109.212 E2.217
G1 X102.23 Y108.571 E2.24916
G1 X102.378 Y107.944 E2.2813
G1 X102.493 Y107.606 E2.29912
G1 X102.792 Y106.816 E2.34126
G1 X103.057 Y106.229 E2.37339
G1 X103.449 Y105.599 E2.41041
G1 X103.79 Y105.13 E2.43934
G1 X104.201 Y104.633 E2.47151
G0 F600 X104.509 Y104.889
G1 F1200 X105.09 Y104.368 E2.51045
G1 X105.892 Y103.758 E2.56072
G1 X106.408 Y103.415 E2.59163
G1 X106.964 Y103.142 E2.62253
G1 X107.329 Y103.008 E2.64193
G1 X108.085 Y102.765 E2.68155
G1 X108.686 Y102.614 E2.71246
G1 X109.538 Y102.535 E2.75515
G1 X110.413 Y102.532 E2.79881
G1 X111.031 Y102.57 E2.8297
G1 X111.639 Y102.687 E2.86059
G1 X111.965 Y102.784 E2.87756
G1 X112.815 Y103.071 E2.92231
G1 X113.387 Y103.307 E2.95318
G1 X113.983 Y103.653 E2.98757
G1 X114.442 Y103.966 E3.01528
G1 X114.93 Y104.348 E3.0462
G1 X115.291 Y104.704 E3.0715
G1 X115.777 Y105.239 E3.10756
G1 X116.163 Y105.724 E3.13848
G1 X116.558 Y106.405 E3.17776
G1 X116.922 Y107.17 E3.22002
G1 X117.152 Y107.745 E3.25092
G1 X117.346 Y108.599 E3.29461
G1 X117.457 Y109.434 E3.33664
G1 X117.499 Y110.052 E3.36754
G1 X117.461 Y110.671 E3.39848
G1 X117.405 Y111.01 E3.41562
G1 X117.225 Y111.908 E3.46132
G1 X117.065 Y112.507 E3.49225
G1 X116.721 Y113.286 E3.53473
G1 X116.357 Y113.945 E3.57229
G1 X116.023 Y114.466 E3.60317
G1 X115.437 Y115.127 E3.64724
G1 X114.771 Y115.751 E3.69277
G1 X114.293 Y116.144 E3.72364
G1 X113.767 Y116.473 E3.7546
G1 X113.358 Y116.669 E3.77722
G1 X112.433 Y117.06 E3.82733
G1 X111.848 Y117.264 E3.85824
G1 X110.995 Y117.42 E3.9015
G1 X110.351 Y117.478 E3.93376
G1 X109.731 Y117.493 E3.9647
G1 X108.878 Y117.383 E4.00761
G1 X107.884 Y117.162 E4.05841
G1 X107.29 Y116.988 E4.08929
G1 X106.722 Y116.74 E4.12021
G1 X106.352 Y116.528 E4.14148
G1 X105.642 Y116.077 E4.18345
G1 X105.142 Y115.712 E4.21433
G1 X104.693 Y115.285 E4.24525
G1 X104.374 Y114.903 E4.27008
G1 X103.714 Y114.022 E4.32499
G1 X103.376 Y113.503 E4.35589
G1 X103.107 Y112.945 E4.3868
G1 X102.941 Y112.465 E4.41214
G1 X102.702 Y111.63 E4.45547
G1 X102.571 Y111.025 E4.48635
G1 X102.518 Y110.408 E4.51725
G1 X102.522 Y110.092 E4.53301
G1 X102.561 Y109.23 E4.57606
G1 X102.629 Y108.614 E4.60698
G1 X102.867 Y107.748 E4.65179
G1 X103.166 Y106.958 E4.69393
G1 X103.422 Y106.394 E4.72483
G1 X103.773 Y105.834 E4.75781
G1 X104.114 Y105.365 E4.78673
G1 X104.509 Y104.889 E4.81759
G0 F600 X104.817 Y105.145
G1 F1200 X105.332 Y104.686 E4.85201
G1 X106.134 Y104.076 E4.90228
G1 X106.629 Y103.75 E4.93185
G1 X107.164 Y103.493 E4.96146
G1 X107.452 Y103.389 E4.97674
G1 X108.208 Y103.146 E5.01636
G1 X108.783 Y103.003 E5.04592
G1 X109.539 Y102.935 E5.08379
G1 X110.414 Y102.932 E5.12744
G1 X111.006 Y102.97 E5.15704
G1 X111.837 Y103.163 E5.1996
G1 X112.687 Y103.45 E5.24436
G1 X113.234 Y103.677 E5.2739
G1 X113.758 Y103.984 E5.3042
G1 X114.217 Y104.297 E5.33192
G1 X114.683 Y104.663 E5.36148
G1 X114.995 Y104.973 E5.38343
G1 X115.481 Y105.508 E5.41949
G1 X115.849 Y105.973 E5.44907
G1 X116.197 Y106.577 E5.48385
G1 X116.561 Y107.342 E5.52611
G1 X116.779 Y107.893 E5.55568
G1 X116.95 Y108.652 E5.59449
G1 X117.061 Y109.487 E5.63652
G1 X117.099 Y110.079 E5.66611
G1 X117.013 Y110.932 E5.70889
G1 X116.833 Y111.83 E5.75458
G1 X116.678 Y112.402 E5.78414
G1 X116.371 Y113.092 E5.82182
G1 X116.007 Y113.751 E5.85938
G1 X115.686 Y114.25 E5.88898
G1 X115.163 Y114.835 E5.92813
G1 X114.497 Y115.459 E5.97366
G1 X114.038 Y115.834 E6.00324
G1 X113.533 Y116.144 E6.0328
G1 X113.202 Y116.301 E6.05108
G1 X112.277 Y116.692 E6.10118
G1 X111.717 Y116.885 E6.13073
G1 X110.959 Y117.021 E6.16915
G1 X110.315 Y117.079 E6.20141
G1 X109.722 Y117.093 E6.231
G1 X108.965 Y116.992 E6.2691
G1 X107.971 Y116.771 E6.3199
G1 X107.402 Y116.604 E6.34949
G1 X106.861 Y116.361 E6.37908
G1 X106.567 Y116.19 E6.39605
G1 X105.857 Y115.739 E6.43801
G1 X105.379 Y115.388 E6.4676
G1 X104.952 Y114.976 E6.4972
G1 X104.695 Y114.663 E6.5174
G1 X104.035 Y113.782 E6.57232
G1 X103.712 Y113.285 E6.6019
G1 X103.459 Y112.748 E6.63151
G1 X103.326 Y112.355 E6.65221
G1 X103.087 Y111.52 E6.69554
G1 X102.962 Y110.94 E6.72514
G1 X102.921 Y110.11 E6.7666
G1 X102.96 Y109.248 E6.80965
G1 X103.027 Y108.659 E6.83923
G1 X103.241 Y107.89 E6.87905
G1 X103.54 Y107.1 E6.92119
G1 X103.787 Y106.56 E6.95082
G1 X104.096 Y106.069 E6.97976
G1 X104.437 Y105.6 E7.00869
G1 X104.817 Y105.145 E7.03826
G0 F600 X105.125 Y105.403
G1 F1200 X105.574 Y105.004 E7.06823
G1 X106.376 Y104.394 E7.1185
G1 X106.849 Y104.085 E7.14669
G1 X107.574 Y103.77 E7.18613
G1 X108.33 Y103.527 E7.22574
G1 X108.879 Y103.392 E7.25395
G1 X109.54 Y103.335 E7.28705
G1 X110.415 Y103.332 E7.3307
G1 X110.979 Y103.37 E7.35891
G1 X111.709 Y103.542 E7.39632
G1 X112.559 Y103.829 E7.44108
G1 X113.08 Y104.047 E7.46926
G1 X113.533 Y104.314 E7.49549
G1 X113.992 Y104.627 E7.52321
G1 X114.435 Y104.978 E7.55141
G1 X114.699 Y105.242 E7.57003
G1 X115.185 Y105.777 E7.60609
G1 X115.534 Y106.222 E7.63431
G1 X115.836 Y106.748 E7.66457
G1 X116.2 Y107.513 E7.70683
G1 X116.406 Y108.04 E7.73506
G1 X116.553 Y108.705 E7.76904
G1 X116.664 Y109.54 E7.81107
G1 X116.699 Y110.104 E7.83926
G1 X116.621 Y110.853 E7.87683
G1 X116.441 Y111.751 E7.92252
G1 X116.291 Y112.296 E7.95072
G1 X116.02 Y112.899 E7.9837
G1 X115.656 Y113.558 E8.02126
G1 X115.349 Y114.032 E8.04944
G1 X114.89 Y114.543 E8.08371
G1 X114.224 Y115.167 E8.12924
G1 X113.785 Y115.523 E8.15744
G1 X113.046 Y115.932 E8.19958
G1 X112.121 Y116.323 E8.24968
G1 X111.586 Y116.506 E8.27789
G1 X110.923 Y116.623 E8.31148
G1 X110.279 Y116.681 E8.34374
G1 X109.714 Y116.692 E8.37193
G1 X109.052 Y116.602 E8.40526
G1 X108.058 Y116.381 E8.45606
G1 X107.516 Y116.219 E8.48428
G1 X106.781 Y115.852 E8.52527
G1 X106.071 Y115.401 E8.56724
G1 X105.617 Y115.065 E8.59541
G1 X105.214 Y114.669 E8.6236
G1 X105.015 Y114.423 E8.63939
G1 X104.355 Y113.542 E8.69431
G1 X104.049 Y113.067 E8.7225
G1 X103.812 Y112.553 E8.75073
G1 X103.71 Y112.245 E8.76692
G1 X103.471 Y111.41 E8.81025
G1 X103.355 Y110.857 E8.83844
G1 X103.321 Y110.128 E8.87485
G1 X103.36 Y109.266 E8.9179
G1 X103.425 Y108.705 E8.94608
G1 X103.615 Y108.031 E8.98101
G1 X103.914 Y107.241 E9.02316
G1 X104.151 Y106.728 E9.05135
G1 X104.42 Y106.305 E9.07636
G1 X104.761 Y105.836 E9.10529
G1 X105.125 Y105.403 E9.13351
G0 F600 X105.431 Y105.662
G1 F1200 X105.817 Y105.323 E9.15914
G1 X106.619 Y104.713 E9.20941
G1 X107.068 Y104.421 E9.23613
G1 X107.696 Y104.151 E9.27023
G1 X108.452 Y103.908 E9.30985
G1 X108.974 Y103.782 E9.33664
G1 X109.542 Y103.735 E9.36508
G1 X110.417 Y103.732 E9.40873
G1 X110.952 Y103.77 E9.43549
G1 X111.581 Y103.921 E9.46776
G1 X112.431 Y104.208 E9.51252
G1 X112.925 Y104.417 E9.53928
G1 X113.307 Y104.645 E9.56148
G1 X113.766 Y104.958 E9.58919
G1 X114.186 Y105.292 E9.61596
G1 X114.403 Y105.511 E9.63135
G1 X114.889 Y106.046 E9.66741
G1 X115.219 Y106.469 E9.69417
G1 X115.475 Y106.92 E9.72004
G1 X115.839 Y107.685 E9.76231
G1 X116.032 Y108.185 E9.78905
G1 X116.157 Y108.758 E9.81831
G1 X116.268 Y109.593 E9.86033
G1 X116.298 Y110.128 E9.88707
G1 X116.229 Y110.775 E9.91953
G1 X116.049 Y111.673 E9.96522
G1 X115.905 Y112.189 E9.99195
G1 X115.67 Y112.706 E10.02028
G1 X115.306 Y113.365 E10.05784
G1 X115.013 Y113.813 E10.08455
G1 X114.616 Y114.251 E10.11404
G1 X113.95 Y114.875 E10.15957
G1 X113.533 Y115.212 E10.18632
G1 X112.891 Y115.564 E10.22285
G1 X111.966 Y115.955 E10.27295
G1 X111.458 Y116.126 E10.29969
G1 X110.887 Y116.224 E10.3286
G1 X110.243 Y116.282 E10.36086
G1 X109.707 Y116.291 E10.3876
G1 X109.139 Y116.211 E10.41622
G1 X108.145 Y115.99 E10.46702
G1 X107.631 Y115.835 E10.4938
G1 X106.996 Y115.515 E10.52928
G1 X106.286 Y115.064 E10.57124
G1 X105.856 Y114.743 E10.59801
G1 X105.335 Y114.183 E10.63617
G1 X104.675 Y113.302 E10.69109
G1 X104.386 Y112.85 E10.71786
G1 X104.095 Y112.135 E10.75637
G1 X103.856 Y111.3 E10.7997
G1 X103.747 Y110.774 E10.8265
G1 X103.721 Y110.146 E10.85786
G1 X103.76 Y109.284 E10.90091
G1 X103.824 Y108.752 E10.92764
G1 X103.989 Y108.173 E10.95768
G1 X104.288 Y107.383 E10.99982
G1 X104.515 Y106.897 E11.02658
G1 X104.743 Y106.54 E11.04772
G1 X105.084 Y106.071 E11.07665
G1 X105.431 Y105.662 E11.10341
G0 F600 X105.736 Y105.922
G1 F1200 X106.059 Y105.641 E11.12476
G1 X106.861 Y105.031 E11.17503
G1 X107.286 Y104.758 E11.20024
G1 X107.819 Y104.532 E11.22912
G1 X108.575 Y104.289 E11.26874
G1 X109.067 Y104.172 E11.29397
G1 X109.543 Y104.135 E11.31779
G1 X110.418 Y104.132 E11.36144
G1 X110.922 Y104.17 E11.38666
G1 X111.453 Y104.3 E11.41393
G1 X112.303 Y104.587 E11.45869
G1 X112.767 Y104.786 E11.48388
G1 X113.082 Y104.975 E11.5022
G1 X113.541 Y105.288 E11.52992
G1 X114.107 Y105.78 E11.56734
G1 X114.593 Y106.315 E11.6034
G1 X114.902 Y106.715 E11.62861
G1 X115.114 Y107.092 E11.65019
G1 X115.478 Y107.857 E11.69246
G1 X115.658 Y108.329 E11.71766
G1 X115.76 Y108.81 E11.74219
G1 X115.871 Y109.645 E11.78422
G1 X115.898 Y110.15 E11.80945
G1 X115.837 Y110.696 E11.83686
G1 X115.657 Y111.594 E11.88255
G1 X115.518 Y112.08 E11.90777
G1 X115.32 Y112.512 E11.93148
G1 X114.956 Y113.171 E11.96904
G1 X114.677 Y113.593 E11.99428
G1 X114.343 Y113.959 E12.019
G1 X113.677 Y114.583 E12.06453
G1 X113.282 Y114.899 E12.08976
G1 X112.735 Y115.195 E12.12079
G1 X111.81 Y115.586 E12.1709
G1 X111.33 Y115.746 E12.19614
G1 X110.851 Y115.826 E12.22037
G1 X110.207 Y115.884 E12.25263
G1 X109.701 Y115.89 E12.27787
G1 X109.225 Y115.821 E12.30187
G1 X108.231 Y115.6 E12.35267
G1 X107.748 Y115.451 E12.37789
G1 X107.21 Y115.177 E12.40801
G1 X106.5 Y114.726 E12.44997
G1 X106.096 Y114.422 E12.4752
G1 X105.655 Y113.944 E12.50764
G1 X104.995 Y113.063 E12.56256
G1 X104.725 Y112.635 E12.58781
G1 X104.48 Y112.025 E12.62061
G1 X104.241 Y111.19 E12.66394
G1 X104.14 Y110.694 E12.68919
G1 X104.12 Y110.164 E12.71565
G1 X104.159 Y109.302 E12.7587
G1 X104.222 Y108.801 E12.78389
G1 X104.363 Y108.314 E12.80919
G1 X104.662 Y107.524 E12.85133
G1 X104.878 Y107.067 E12.87655
G1 X105.067 Y106.775 E12.8939
G1 X105.408 Y106.306 E12.92283
G1 X105.736 Y105.922 E12.94803
G1 F1500 E6.44803
;MESH:Roller.STL
G0 F600 X108.047 Y109.997
;TYPE:WALL-INNER
G1 F1500 E12.94803
G1 F600 X108.078 Y110.336 E12.96501
G1 X108.166 Y110.665 E12.982
G1 X108.309 Y110.971 E12.99885
G1 X108.504 Y111.252 E13.01591
G1 X108.745 Y111.492 E13.03288
G1 X109.023 Y111.686 E13.0498
G1 X109.331 Y111.831 E13.06678
G1 X109.662 Y111.92 E13.08388
G1 X109.999 Y111.948 E13.10075
G1 X110.337 Y111.92 E13.11767
G1 X110.667 Y111.831 E13.13472
G1 X110.974 Y111.687 E13.15164
G1 X111.254 Y111.492 E13.16866
G1 X111.494 Y111.252 E13.1856
G1 X111.689 Y110.972 E13.20262
G1 X111.833 Y110.665 E13.21954
G1 X111.922 Y110.335 E13.23659
G1 X111.95 Y109.997 E13.25351
G1 X111.922 Y109.66 E13.27038
G1 X111.833 Y109.329 E13.28748
G1 X111.688 Y109.021 E13.30447
G1 X111.494 Y108.743 E13.32138
G1 X111.254 Y108.502 E13.33835
G1 X110.973 Y108.307 E13.35541
G1 X110.667 Y108.164 E13.37226
G1 X110.338 Y108.076 E13.38925
G1 X109.999 Y108.045 E13.40624
G1 X109.661 Y108.076 E13.42317
G1 X109.332 Y108.164 E13.44016
G1 X109.024 Y108.307 E13.4571
G1 X108.745 Y108.502 E13.47408
G1 X108.504 Y108.743 E13.49109
G1 X108.309 Y109.022 E13.50807
G1 X108.166 Y109.33 E13.52501
G1 X108.078 Y109.659 E13.542
G1 X108.047 Y109.997 E13.55894
G1 F1500 E7.05894
G0 F600 X110.323 Y107.914
G1 F1500 E13.55894
G1 F600 X110.536 Y107.958 E13.56979
G1 X110.749 Y108.026 E13.58094
G1 X110.947 Y108.113 E13.59173
G1 X111.128 Y108.215 E13.6021
G1 X111.303 Y108.34 E13.61283
G1 X111.476 Y108.492 E13.62432
G1 X111.621 Y108.649 E13.63498
G1 X111.745 Y108.814 E13.64528
G1 X111.864 Y109.012 E13.6568
G1 X111.953 Y109.202 E13.66727
G1 X112.022 Y109.401 E13.67778
G1 X112.075 Y109.622 E13.68911
G1 X112.103 Y109.833 E13.69973
G1 X112.108 Y110.056 E13.71086
G1 X112.092 Y110.264 E13.72127
G1 X112.052 Y110.482 E13.73233
G1 X111.992 Y110.691 E13.74318
G1 X111.913 Y110.885 E13.75363
G1 X111.807 Y111.085 E13.76492
G1 X111.685 Y111.266 E13.77581
G1 X111.551 Y111.426 E13.78622
G1 X111.388 Y111.584 E13.79755
G1 X111.223 Y111.716 E13.80809
G1 X111.038 Y111.834 E13.81904
G1 X110.843 Y111.932 E13.82992
G1 X110.639 Y112.008 E13.84079
G1 X110.439 Y112.06 E13.85109
G1 X110.211 Y112.096 E13.86261
G1 X109.999 Y112.107 E13.8732
G1 X109.788 Y112.096 E13.88374
G1 X109.56 Y112.06 E13.89526
G1 X109.355 Y112.007 E13.90582
G1 X109.161 Y111.934 E13.91616
G1 X108.965 Y111.835 E13.92712
G1 X108.772 Y111.713 E13.93851
G1 X108.604 Y111.579 E13.94923
G1 X108.453 Y111.434 E13.95968
G1 X108.313 Y111.265 E13.97062
G1 X108.192 Y111.085 E13.98145
G1 X108.088 Y110.888 E13.99256
G1 X108.006 Y110.69 E14.00325
G1 X107.948 Y110.487 E14.01378
G1 X107.906 Y110.259 E14.02535
G1 X107.891 Y110.058 E14.03541
G1 X107.896 Y109.833 E14.04663
G1 X107.926 Y109.608 E14.05796
G1 X107.973 Y109.411 E14.06806
G1 X108.047 Y109.197 E14.07936
G1 X108.135 Y109.009 E14.08972
G1 X108.25 Y108.817 E14.10088
G1 X108.377 Y108.649 E14.11139
G1 X108.527 Y108.486 E14.12244
G1 X108.687 Y108.345 E14.13308
G1 X108.872 Y108.214 E14.14439
G1 X109.052 Y108.113 E14.15469
G1 X109.25 Y108.026 E14.16548
G1 X109.463 Y107.958 E14.17663
G1 X109.676 Y107.914 E14.18748
G1 X109.893 Y107.891 E14.19837
G1 X110.106 Y107.891 E14.209
G1 X110.323 Y107.914 E14.21988
G0 X110.386 Y107.518
;TYPE:WALL-OUTER
G1 X110.636 Y107.57 E14.23262
G1 X110.893 Y107.652 E14.24608
G1 X111.122 Y107.752 E14.25855
G1 X111.345 Y107.878 E14.27133
G1 X111.554 Y108.027 E14.28413
G1 X111.752 Y108.202 E14.29731
G1 X111.928 Y108.392 E14.31024
G1 X112.079 Y108.592 E14.32274
G1 X112.217 Y108.822 E14.33612
G1 X112.325 Y109.052 E14.3488
G1 X112.406 Y109.286 E14.36115
G1 X112.47 Y109.556 E14.37499
G1 X112.502 Y109.799 E14.38722
G1 X112.509 Y110.067 E14.4006
