;FLAVOR:Marlin
;TIME:351
;Filament used: 0.17317m
;Layer height: 0.2
;Generated with Cura_SteamEngine 3.6.0
M140 S60
M105
M190 S60
M104 S210
M105
M109 S210
M82 ;absolute extrusion mode
G21 ;metric values
G90 ;absolute positioning
M82 ;set extruder to absolute mode
M107 ;start with the fan off
G28 X0 Y0 ;move X/Y to min endstops
G28 Z0 ;move Z to min endstops
G1 Z15.0 F9000 ;move the platform down 15mm
G92 E0 ;zero the extruded length
G1 F200 E3 ;extrude 3mm of feed stock
G92 E0 ;zero the extruded length again
G1 F9000;Put printing message on LCD screen
M117 Printing..0
G92 E0
G1 F1500 E-6.5
;LAYER_COUNT:50
;LAYER:0
M107
G0 F600 X103.655 Y103.219 Z0.3
;TYPE:SKIRT
G1 F1500 E0
G1 F1200 X104.091 Y102.864 E0.02805
G1 X105.119 Y102.123 E0.09127
G1 X105.644 Y101.794 E0.12218
G1 X106.297 Y101.502 E0.15787
G1 X107.414 Y101.099 E0.21711
G1 X108.009 Y100.927 E0.24801
G1 X108.413 Y100.856 E0.26848
G1 X109.123 Y100.762 E0.30421
G1 X109.957 Y100.724 E0.34586
G1 X110.803 Y100.76 E0.38811
G1 X111.576 Y100.856 E0.42697
G1 X112.235 Y100.993 E0.46055
G1 X112.832 Y101.158 E0.49145
G1 X113.199 Y101.303 E0.51114
G1 X114.278 Y101.78 E0.56999
G1 X114.827 Y102.066 E0.60088
G1 X115.332 Y102.419 E0.63162
G1 X116.201 Y103.113 E0.6871
G1 X116.852 Y103.742 E0.73226
G1 X117.245 Y104.201 E0.76241
G1 X117.778 Y104.961 E0.80872
G1 X118.328 Y105.934 E0.86448
G1 X118.597 Y106.492 E0.89539
G1 X118.739 Y106.891 E0.91652
G1 X118.971 Y107.649 E0.95606
G1 X119.148 Y108.493 E0.99909
G1 X119.245 Y109.318 E1.04053
G1 X119.278 Y109.937 E1.07146
G1 X119.254 Y110.362 E1.09269
G1 X119.139 Y111.498 E1.14966
G1 X119.037 Y112.109 E1.18056
G1 X118.86 Y112.693 E1.21101
G1 X118.454 Y113.781 E1.26895
G1 X118.201 Y114.346 E1.29983
G1 X117.848 Y114.913 E1.33315
G1 X117.107 Y115.939 E1.39629
G1 X116.713 Y116.417 E1.4272
G1 X116.21 Y116.881 E1.46134
G1 X115.383 Y117.541 E1.51413
G1 X114.694 Y118 E1.55543
G1 X114.113 Y118.318 E1.58847
G1 X113.36 Y118.649 E1.62951
G1 X112.646 Y118.893 E1.66716
G1 X111.767 Y119.104 E1.71225
G1 X110.8 Y119.241 E1.76098
G1 X110.183 Y119.288 E1.79185
G1 X109.833 Y119.279 E1.80932
G1 X109.066 Y119.232 E1.84766
G1 X108.197 Y119.098 E1.89152
G1 X107.276 Y118.868 E1.93888
G1 X106.686 Y118.679 E1.96979
G1 X106.125 Y118.416 E2.0007
G1 X104.971 Y117.781 E2.06642
G1 X104.449 Y117.448 E2.09731
G1 X104.006 Y117.082 E2.12598
G1 X103.311 Y116.432 E2.17345
G1 X102.741 Y115.793 E2.21617
G1 X102.379 Y115.307 E2.24641
G1 X101.98 Y114.674 E2.28374
G1 X101.615 Y113.98 E2.32286
G1 X101.275 Y113.156 E2.36733
G1 X101 Y112.261 E2.41404
G1 X100.856 Y111.658 E2.44497
G1 X100.799 Y111.177 E2.46914
G1 X100.728 Y110.135 E2.52124
G1 X100.726 Y109.516 E2.55212
G1 X100.759 Y109.176 E2.56917
G1 X100.871 Y108.334 E2.61154
G1 X100.992 Y107.727 E2.64242
G1 X101.103 Y107.369 E2.66112
G1 X101.427 Y106.451 E2.70969
G1 X101.767 Y105.7 E2.75082
G1 X102.051 Y105.194 E2.77977
G1 X102.565 Y104.451 E2.82484
G1 X103.226 Y103.666 E2.87604
G1 X103.655 Y103.219 E2.90695
G0 F600 X103.944 Y103.497
G1 F1200 X104.325 Y103.189 E2.93139
G1 X105.353 Y102.448 E2.99461
G1 X105.856 Y102.134 E3.0242
G1 X106.433 Y101.878 E3.05569
G1 X107.55 Y101.475 E3.11493
G1 X108.12 Y101.312 E3.14451
G1 X108.466 Y101.252 E3.16203
G1 X109.176 Y101.158 E3.19776
G1 X109.94 Y101.124 E3.23592
G1 X110.786 Y101.16 E3.27816
G1 X111.495 Y101.248 E3.3138
G1 X112.154 Y101.385 E3.34739
G1 X112.725 Y101.545 E3.37697
G1 X113.037 Y101.669 E3.39372
G1 X114.116 Y102.146 E3.45258
G1 X114.641 Y102.421 E3.48214
G1 X115.083 Y102.732 E3.50911
G1 X115.952 Y103.426 E3.56459
G1 X116.548 Y104.002 E3.60594
G1 X116.941 Y104.461 E3.63609
G1 X117.429 Y105.158 E3.67854
G1 X117.979 Y106.131 E3.7343
G1 X118.236 Y106.666 E3.76391
G1 X118.356 Y107.008 E3.78199
G1 X118.588 Y107.766 E3.82154
G1 X118.751 Y108.54 E3.861
G1 X118.848 Y109.365 E3.90245
G1 X118.877 Y109.957 E3.93202
G1 X118.856 Y110.322 E3.95026
G1 X118.741 Y111.458 E4.00722
G1 X118.641 Y112.043 E4.03683
G1 X118.485 Y112.553 E4.06344
G1 X118.079 Y113.641 E4.12138
G1 X117.835 Y114.182 E4.15099
G1 X117.524 Y114.679 E4.18024
G1 X116.783 Y115.705 E4.24338
G1 X116.404 Y116.161 E4.27296
G1 X115.961 Y116.568 E4.30297
G1 X115.134 Y117.228 E4.35576
G1 X114.502 Y117.649 E4.39364
G1 X113.921 Y117.967 E4.42669
G1 X113.231 Y118.271 E4.46431
G1 X112.517 Y118.515 E4.50195
G1 X111.711 Y118.707 E4.54329
G1 X110.744 Y118.844 E4.59201
G1 X109.858 Y118.88 E4.63625
G1 X109.091 Y118.833 E4.67459
G1 X108.294 Y118.71 E4.71482
G1 X107.373 Y118.48 E4.76218
G1 X106.809 Y118.298 E4.79175
G1 X106.318 Y118.066 E4.81884
G1 X105.164 Y117.431 E4.88456
G1 X104.665 Y117.111 E4.91413
G1 X104.28 Y116.79 E4.93914
G1 X103.585 Y116.14 E4.98661
G1 X103.061 Y115.554 E5.02583
G1 X102.699 Y115.068 E5.05607
G1 X102.334 Y114.488 E5.09026
G1 X101.969 Y113.794 E5.12938
G1 X101.657 Y113.038 E5.17018
G1 X101.382 Y112.143 E5.21689
G1 X101.246 Y111.566 E5.24647
G1 X101.198 Y111.15 E5.26736
G1 X101.127 Y110.108 E5.31946
G1 X101.155 Y109.229 E5.36334
G1 X101.267 Y108.387 E5.40572
G1 X101.385 Y107.806 E5.4353
G1 X101.48 Y107.503 E5.45114
G1 X101.804 Y106.585 E5.49971
G1 X102.116 Y105.895 E5.53749
G1 X102.4 Y105.389 E5.56644
G1 X102.871 Y104.709 E5.6077
G1 X103.532 Y103.924 E5.6589
G1 X103.944 Y103.497 E5.68851
G0 F600 X104.232 Y103.776
G1 F1200 X104.559 Y103.513 E5.70944
G1 X105.587 Y102.772 E5.77266
G1 X106.068 Y102.475 E5.80087
G1 X106.568 Y102.254 E5.82814
G1 X107.685 Y101.851 E5.88738
G1 X108.23 Y101.698 E5.91562
G1 X108.518 Y101.649 E5.9302
G1 X109.228 Y101.555 E5.96593
G1 X109.923 Y101.524 E6.00064
G1 X110.769 Y101.56 E6.04288
G1 X111.413 Y101.64 E6.07526
G1 X112.072 Y101.777 E6.10884
G1 X112.875 Y102.035 E6.15092
G1 X113.954 Y102.512 E6.20978
G1 X114.454 Y102.776 E6.23799
G1 X114.833 Y103.044 E6.26114
G1 X115.702 Y103.738 E6.31663
G1 X116.244 Y104.262 E6.35424
G1 X116.637 Y104.721 E6.38439
G1 X117.081 Y105.355 E6.423
G1 X117.631 Y106.328 E6.47876
G1 X117.874 Y106.838 E6.50695
G1 X117.974 Y107.125 E6.52211
G1 X118.206 Y107.883 E6.56166
G1 X118.354 Y108.587 E6.59755
G1 X118.451 Y109.412 E6.63899
G1 X118.477 Y109.977 E6.66721
G1 X118.458 Y110.282 E6.68246
G1 X118.343 Y111.418 E6.73942
G1 X118.246 Y111.975 E6.76763
G1 X118.111 Y112.413 E6.79049
G1 X117.705 Y113.501 E6.84843
G1 X117.47 Y114.016 E6.87667
G1 X117.2 Y114.445 E6.90196
G1 X116.459 Y115.471 E6.9651
G1 X116.096 Y115.905 E6.99333
G1 X115.711 Y116.255 E7.01929
G1 X114.884 Y116.915 E7.07208
G1 X114.309 Y117.298 E7.10654
G1 X113.728 Y117.616 E7.13959
G1 X113.102 Y117.892 E7.17372
G1 X112.388 Y118.136 E7.21137
G1 X111.655 Y118.311 E7.24896
G1 X110.688 Y118.448 E7.29769
G1 X109.882 Y118.481 E7.33793
G1 X109.115 Y118.434 E7.37627
G1 X108.391 Y118.322 E7.41282
G1 X107.47 Y118.092 E7.46018
G1 X106.932 Y117.916 E7.48842
G1 X106.511 Y117.715 E7.5117
G1 X105.357 Y117.08 E7.57741
G1 X104.882 Y116.774 E7.6056
G1 X104.553 Y116.497 E7.62706
G1 X103.858 Y115.847 E7.67453
G1 X103.382 Y115.315 E7.71015
G1 X103.02 Y114.829 E7.74038
G1 X102.688 Y114.302 E7.77145
G1 X102.323 Y113.608 E7.81058
G1 X102.039 Y112.921 E7.84766
G1 X101.764 Y112.026 E7.89437
G1 X101.637 Y111.475 E7.92259
G1 X101.597 Y111.123 E7.94026
G1 X101.526 Y110.081 E7.99237
G1 X101.552 Y109.282 E8.03225
G1 X101.664 Y108.44 E8.07463
G1 X101.857 Y107.636 E8.11588
G1 X102.181 Y106.718 E8.16445
G1 X102.465 Y106.091 E8.19879
G1 X102.749 Y105.585 E8.22774
G1 X103.177 Y104.967 E8.26524
G1 X103.838 Y104.182 E8.31644
G1 X104.232 Y103.776 E8.34466
G0 F600 X104.519 Y104.056
G1 F1200 X104.793 Y103.838 E8.36213
G1 X105.821 Y103.097 E8.42535
G1 X106.278 Y102.816 E8.45212
G1 X106.704 Y102.631 E8.47529
G1 X107.821 Y102.228 E8.53453
G1 X108.571 Y102.045 E8.57305
G1 X109.281 Y101.951 E8.60878
G1 X109.906 Y101.923 E8.63999
G1 X110.752 Y101.959 E8.68224
G1 X111.332 Y102.031 E8.7114
G1 X111.991 Y102.168 E8.74498
G1 X112.714 Y102.4 E8.78286
G1 X113.793 Y102.877 E8.84172
G1 X114.266 Y103.13 E8.86848
G1 X114.584 Y103.357 E8.88797
G1 X115.453 Y104.051 E8.94345
G1 X115.941 Y104.523 E8.97733
G1 X116.334 Y104.982 E9.00747
G1 X116.733 Y105.551 E9.04214
G1 X117.283 Y106.524 E9.09791
G1 X117.591 Y107.242 E9.13688
G1 X117.823 Y108 E9.17643
G1 X117.956 Y108.634 E9.20875
G1 X118.053 Y109.459 E9.25019
G1 X118.06 Y110.242 E9.28926
G1 X117.945 Y111.378 E9.34622
G1 X117.851 Y111.906 E9.37298
G1 X117.736 Y112.274 E9.39222
G1 X117.33 Y113.362 E9.45015
G1 X117.105 Y113.849 E9.47692
G1 X116.875 Y114.211 E9.49831
G1 X116.134 Y115.237 E9.56146
G1 X115.789 Y115.647 E9.58819
G1 X115.462 Y115.943 E9.61019
G1 X114.635 Y116.603 E9.66298
G1 X114.117 Y116.947 E9.694
G1 X113.536 Y117.265 E9.72705
G1 X112.972 Y117.514 E9.75781
G1 X112.258 Y117.758 E9.79545
G1 X111.599 Y117.915 E9.82925
G1 X110.632 Y118.052 E9.87797
G1 X109.907 Y118.081 E9.91417
G1 X109.14 Y118.034 E9.95251
G1 X108.488 Y117.934 E9.98542
G1 X107.567 Y117.704 E10.03278
G1 X107.058 Y117.535 E10.05954
G1 X106.703 Y117.365 E10.07917
G1 X105.549 Y116.73 E10.14489
G1 X105.1 Y116.437 E10.17164
G1 X104.826 Y116.205 E10.18955
G1 X104.131 Y115.555 E10.23702
G1 X103.703 Y115.076 E10.26907
G1 X103.341 Y114.59 E10.2993
G1 X103.042 Y114.116 E10.32726
G1 X102.677 Y113.422 E10.36638
G1 X102.422 Y112.803 E10.39978
G1 X102.147 Y111.908 E10.4465
G1 X102.028 Y111.385 E10.47326
G1 X101.996 Y111.096 E10.48776
G1 X101.925 Y110.054 E10.53987
G1 X101.948 Y109.334 E10.57581
G1 X102.06 Y108.492 E10.61818
G1 X102.234 Y107.769 E10.65529
G1 X102.558 Y106.851 E10.70385
G1 X102.814 Y106.287 E10.73475
G1 X103.098 Y105.781 E10.7637
G1 X103.483 Y105.224 E10.79748
G1 X104.144 Y104.439 E10.84868
G1 X104.519 Y104.056 E10.87543
G0 F600 X104.805 Y104.337
G1 F1200 X105.027 Y104.162 E10.88953
G1 X106.055 Y103.421 E10.95275
G1 X106.487 Y103.159 E10.97796
G1 X106.84 Y103.007 E10.99713
G1 X107.957 Y102.604 E11.05637
G1 X108.623 Y102.442 E11.09057
G1 X109.333 Y102.348 E11.1263
G1 X109.889 Y102.323 E11.15407
G1 X110.735 Y102.359 E11.19631
G1 X111.25 Y102.423 E11.22221
G1 X111.909 Y102.56 E11.25579
G1 X112.552 Y102.766 E11.28947
G1 X113.631 Y103.243 E11.34833
G1 X114.076 Y103.484 E11.37358
G1 X114.334 Y103.67 E11.38944
G1 X115.203 Y104.364 E11.44493
G1 X115.637 Y104.783 E11.47502
G1 X116.03 Y105.242 E11.50517
G1 X116.385 Y105.748 E11.53601
G1 X116.935 Y106.721 E11.59177
G1 X117.209 Y107.359 E11.62641
G1 X117.441 Y108.117 E11.66596
G1 X117.559 Y108.68 E11.69466
G1 X117.656 Y109.505 E11.7361
G1 X117.662 Y110.201 E11.77083
G1 X117.547 Y111.337 E11.82779
G1 X117.456 Y111.835 E11.85305
G1 X117.361 Y112.134 E11.8687
G1 X116.955 Y113.222 E11.92664
G1 X116.741 Y113.68 E11.95186
G1 X116.551 Y113.977 E11.96945
G1 X115.81 Y115.003 E12.03259
G1 X115.483 Y115.388 E12.05779
G1 X115.212 Y115.63 E12.07592
G1 X114.385 Y116.29 E12.1287
G1 X113.925 Y116.596 E12.15627
G1 X113.344 Y116.914 E12.18931
G1 X112.843 Y117.135 E12.21663
G1 X112.129 Y117.379 E12.25427
G1 X111.543 Y117.519 E12.28433
G1 X110.576 Y117.656 E12.33306
G1 X109.931 Y117.682 E12.36526
G1 X109.164 Y117.635 E12.4036
G1 X108.585 Y117.546 E12.43283
G1 X107.664 Y117.316 E12.48019
G1 X107.184 Y117.155 E12.50545
G1 X106.896 Y117.015 E12.52142
G1 X105.742 Y116.38 E12.58714
G1 X105.32 Y116.102 E12.61235
G1 X105.099 Y115.913 E12.62685
G1 X104.404 Y115.263 E12.67433
G1 X104.024 Y114.838 E12.70277
G1 X103.662 Y114.352 E12.73301
G1 X103.396 Y113.93 E12.75789
G1 X103.031 Y113.236 E12.79701
G1 X102.804 Y112.686 E12.8267
G1 X102.529 Y111.791 E12.87341
G1 X102.395 Y111.069 E12.91005
G1 X102.324 Y110.027 E12.96215
G1 X102.345 Y109.387 E12.9941
G1 X102.457 Y108.545 E13.03648
G1 X102.611 Y107.902 E13.06946
G1 X102.935 Y106.984 E13.11803
G1 X103.162 Y106.483 E13.14547
G1 X103.446 Y105.977 E13.17442
G1 X103.789 Y105.482 E13.20447
G1 X104.45 Y104.697 E13.25567
G1 X104.805 Y104.337 E13.28089
G1 F1500 E6.78089
;MESH:3.stl
G0 F600 X107.534 Y107.4
;TYPE:WALL-INNER
G1 F1500 E13.28089
G1 F600 X107.107 Y107.9 E13.31369
G1 X106.813 Y108.379 E13.34173
G1 X106.598 Y108.896 E13.36967
G1 X106.468 Y109.44 E13.39757
G1 X106.423 Y110 E13.4256
G1 X106.468 Y110.56 E13.45363
G1 X106.598 Y111.104 E13.48153
G1 X106.813 Y111.621 E13.50947
G1 X107.107 Y112.1 E13.53751
G1 X107.534 Y112.6 E13.57031
G1 X112.457 Y112.6 E13.81592
G1 X112.884 Y112.1 E13.84873
G1 X113.178 Y111.621 E13.87676
G1 X113.393 Y111.104 E13.9047
G1 X113.523 Y110.559 E13.93265
G1 X113.567 Y110 E13.96063
G1 X113.523 Y109.441 E13.9886
G1 X113.393 Y108.896 E14.01656
G1 X113.178 Y108.379 E14.04449
G1 X112.884 Y107.9 E14.07253
G1 X112.457 Y107.4 E14.10533
G1 X107.534 Y107.4 E14.35094
G1 F1500 E7.85094
G0 F600 X110.624 Y106.153
G1 F1500 E14.35094
G1 F600 X111.112 Y106.265 E14.37592
G1 X111.583 Y106.439 E14.40097
G1 X112.018 Y106.668 E14.4255
G1 X112.432 Y106.958 E14.45072
G1 X112.802 Y107.295 E14.47568
G1 X113.126 Y107.677 E14.50067
G1 X113.395 Y108.092 E14.52535
G1 X113.613 Y108.546 E14.55047
G1 X113.769 Y109.019 E14.57532
G1 X113.862 Y109.506 E14.60006
G1 X113.892 Y110.006 E14.62505
G1 X113.859 Y110.507 E14.6501
G1 X113.764 Y110.993 E14.6748
G1 X113.605 Y111.472 E14.69998
G1 X113.389 Y111.917 E14.72466
G1 X113.112 Y112.341 E14.74993
G1 X112.793 Y112.715 E14.77445
G1 X112.412 Y113.058 E14.80003
G1 X112.01 Y113.338 E14.82447
G1 X111.575 Y113.564 E14.84893
G1 X111.093 Y113.74 E14.87453
G1 X110.61 Y113.849 E14.89923
G1 X110.117 Y113.897 E14.92394
G1 X109.608 Y113.879 E14.94935
G1 X109.124 Y113.8 E14.97382
G1 X108.639 Y113.655 E14.99907
G1 X108.19 Y113.455 E15.0236
G1 X107.759 Y113.193 E15.04876
G1 X107.37 Y112.881 E15.07364
G1 X107.019 Y112.518 E15.09883
G1 X106.72 Y112.114 E15.12391
G1 X106.485 Y111.693 E15.14796
G1 X106.294 Y111.219 E15.17346
G1 X106.166 Y110.73 E15.19867
G1 X106.105 Y110.244 E15.22311
G1 X106.106 Y109.742 E15.24816
G1 X106.169 Y109.249 E15.27295
G1 X106.298 Y108.765 E15.29794
G1 X106.488 Y108.298 E15.32309
G1 X106.73 Y107.87 E15.34762
G1 X107.033 Y107.466 E15.37282
G1 X107.379 Y107.111 E15.39755
G1 X107.772 Y106.798 E15.42262
G1 X108.197 Y106.542 E15.44737
G1 X108.654 Y106.341 E15.47228
G1 X109.141 Y106.198 E15.4976
G1 X109.624 Y106.12 E15.52201
G1 X110.131 Y106.104 E15.54731
G1 X110.624 Y106.153 E15.57203
G0 X110.689 Y105.758
;TYPE:WALL-OUTER
G1 X111.226 Y105.881 E15.59952
G1 X111.746 Y106.073 E15.62717
G1 X112.228 Y106.327 E15.65435
G1 X112.682 Y106.645 E15.68201
G1 X113.091 Y107.017 E15.70959
G1 X113.445 Y107.435 E15.73692
G1 X113.747 Y107.9 E15.76458
G1 X113.984 Y108.394 E15.79192
G1 X114.157 Y108.919 E15.81949
G1 X114.259 Y109.454 E15.84666
G1 X114.293 Y110.008 E15.87436
G1 X114.256 Y110.563 E15.90211
G1 X114.152 Y111.094 E15.9291
G1 X113.977 Y111.623 E15.9569
G1 X113.738 Y112.114 E15.98414
G1 X113.434 Y112.58 E16.0119
G1 X113.08 Y112.995 E16.03912
G1 X112.665 Y113.369 E16.06699
G1 X112.215 Y113.682 E16.09434
G1 X111.734 Y113.932 E16.12138
G1 X111.209 Y114.124 E16.14927
G1 X110.673 Y114.245 E16.17668
G1 X110.127 Y114.298 E16.20405
G1 X109.569 Y114.278 E16.23191
G1 X109.036 Y114.191 E16.25885
G1 X108.501 Y114.031 E16.28671
G1 X108 Y113.808 E16.31407
G1 X107.528 Y113.521 E16.34163
G1 X107.101 Y113.178 E16.36895
G1 X106.717 Y112.781 E16.39651
G1 X106.386 Y112.335 E16.42422
G1 X106.122 Y111.863 E16.4512
G1 X105.914 Y111.347 E16.47896
G1 X105.772 Y110.805 E16.50691
G1 X105.705 Y110.27 E16.53381
G1 X105.706 Y109.714 E16.56155
G1 X105.776 Y109.17 E16.58891
G1 X105.918 Y108.637 E16.61643
G1 X106.125 Y108.128 E16.64385
G1 X106.395 Y107.65 E16.67123
G1 X106.73 Y107.204 E16.69906
G1 X107.108 Y106.815 E16.72612
G1 X107.544 Y106.468 E16.75392
G1 X108.011 Y106.187 E16.78112
G1 X108.519 Y105.963 E16.80881
G1 X109.05 Y105.807 E16.83643
G1 X109.587 Y105.721 E16.86356
G1 X110.143 Y105.703 E16.89131
G1 X110.689 Y105.758 E16.91869
G0 X110.884 Y105.802
G1 F1500 E10.41869
G0 F600 X107.718 Y107.8
G1 F1500 E16.91869
G1 F600 X107.431 Y108.136 E16.94074
G1 X107.17 Y108.561 E16.96562
G1 X106.98 Y109.02 E16.9904
G1 X106.864 Y109.503 E17.01518
G1 X106.824 Y110 E17.04006
G1 X106.864 Y110.497 E17.06494
G1 X106.98 Y110.98 E17.08972
G1 X107.17 Y111.439 E17.1145
G1 X107.431 Y111.864 E17.13938
G1 X107.718 Y112.2 E17.16143
G1 X112.273 Y112.2 E17.38868
G1 X112.56 Y111.864 E17.41073
G1 X112.821 Y111.439 E17.43561
G1 X113.011 Y110.98 E17.46039
G1 X113.127 Y110.496 E17.48522
G1 X113.166 Y110 E17.51005
