;FLAVOR:Marlin
;TIME:2332
;Filament used: 1.32142m
;Layer height: 0.2
;Generated with Cura_SteamEngine 3.6.0
M140 S60
M105
M190 S60
M104 S210
M105
M109 S210
M82 ;absolute extrusion mode
G21 ;metric values
G90 ;absolute positioning
M82 ;set extruder to absolute mode
M107 ;start with the fan off
G28 X0 Y0 ;move X/Y to min endstops
G28 Z0 ;move Z to min endstops
G1 Z15.0 F9000 ;move the platform down 15mm
G92 E0 ;zero the extruded length
G1 F200 E3 ;extrude 3mm of feed stock
G92 E0 ;zero the extruded length again
G1 F9000;Put printing message on LCD screen
M117 Printing..0
G92 E0
G1 F1500 E-6.5
;LAYER_COUNT:144
;LAYER:0
M107
G0 F600 X104.699 Y104.319 Z0.3
;TYPE:SKIRT
G1 F1500 E0
G1 F1200 X105.064 Y104.028 E0.02329
G1 X106.042 Y103.339 E0.08297
G1 X106.526 Y103.047 E0.11118
G1 X107.021 Y102.835 E0.13804
G1 X107.847 Y102.545 E0.18172
G1 X108.392 Y102.396 E0.2099
G1 X108.688 Y102.348 E0.22486
G1 X109.434 Y102.257 E0.26236
G1 X109.998 Y102.229 E0.29053
G1 X110.395 Y102.257 E0.31039
G1 X111.453 Y102.384 E0.36355
G1 X112.211 Y102.551 E0.40227
G1 X112.559 Y102.664 E0.42053
G1 X113.083 Y102.876 E0.44873
G1 X113.413 Y103.057 E0.46751
G1 X120.567 Y107.439 E0.88605
G1 X128.206 Y111.501 E1.31769
G1 X128.685 Y111.801 E1.34589
G1 X129.11 Y112.159 E1.37362
G1 X129.674 Y112.705 E1.41278
G1 X130.052 Y113.126 E1.44101
G1 X130.314 Y113.509 E1.46416
G1 X130.902 Y114.481 E1.52083
G1 X131.16 Y114.984 E1.54904
G1 X131.323 Y115.442 E1.57329
G1 X131.558 Y116.256 E1.61556
G1 X131.701 Y117.036 E1.65512
G1 X131.754 Y117.678 E1.68726
G1 X131.761 Y118.243 E1.71545
G1 X131.711 Y118.68 E1.7374
G1 X131.501 Y119.91 E1.79965
G1 X131.367 Y120.459 E1.82784
G1 X131.168 Y120.96 E1.85474
G1 X130.813 Y121.704 E1.89586
G1 X130.534 Y122.195 E1.92404
G1 X130.214 Y122.615 E1.95038
G1 X129.404 Y123.541 E2.01176
G1 X129.002 Y123.939 E2.03998
G1 X128.601 Y124.242 E2.06506
G1 X127.95 Y124.673 E2.10401
G1 X127.314 Y125.016 E2.14006
G1 X122.634 Y127.017 E2.39399
G1 X117.76 Y129.39 E2.66445
G1 X111.841 Y132.749 E3.00398
G1 X111.488 Y132.927 E3.02371
G1 X110.8 Y133.232 E3.06125
G1 X110.268 Y133.424 E3.08947
G1 X109.895 Y133.51 E3.10857
G1 X108.884 Y133.694 E3.15984
G1 X108.322 Y133.756 E3.18804
G1 X107.842 Y133.746 E3.212
G1 X106.877 Y133.667 E3.2603
G1 X106.318 Y133.581 E3.28852
G1 X105.781 Y133.419 E3.3165
G1 X104.719 Y133.015 E3.37319
G1 X104.206 Y132.777 E3.4014
G1 X103.773 Y132.5 E3.42705
G1 X103.054 Y131.972 E3.47155
G1 X102.624 Y131.606 E3.49972
G1 X102.295 Y131.242 E3.5242
G1 X101.622 Y130.398 E3.57806
G1 X101.301 Y129.932 E3.60629
G1 X101.031 Y129.379 E3.63699
G1 X100.607 Y128.31 E3.69437
G1 X100.436 Y127.771 E3.72258
G1 X100.353 Y127.308 E3.74604
G1 X100.259 Y126.519 E3.78569
G1 X100.245 Y125.712 E3.82595
G1 X100.306 Y124.983 E3.86245
G1 X100.352 Y124.625 E3.88046
G1 X101.33 Y119.058 E4.16245
G1 X101.966 Y113.648 E4.43421
G1 X102.259 Y109.332 E4.65004
G1 X102.327 Y108.822 E4.67571
G1 X102.459 Y108.159 E4.70943
G1 X102.608 Y107.614 E4.73762
G1 X102.763 Y107.236 E4.758
G1 X103.265 Y106.17 E4.81679
G1 X103.542 Y105.677 E4.845
G1 X103.822 Y105.301 E4.86839
G1 X104.306 Y104.725 E4.90592
G1 X104.699 Y104.319 E4.93411
G0 F600 X104.986 Y104.598
G1 F1200 X105.295 Y104.355 E4.95373
G1 X106.273 Y103.666 E5.01341
G1 X106.733 Y103.391 E5.04015
G1 X107.153 Y103.212 E5.06293
G1 X107.979 Y102.922 E5.1066
G1 X108.736 Y102.745 E5.14539
G1 X109.482 Y102.654 E5.18288
G1 X110.018 Y102.629 E5.20965
G1 X110.347 Y102.654 E5.22611
G1 X111.405 Y102.781 E5.27928
G1 X112.088 Y102.931 E5.31416
G1 X112.436 Y103.044 E5.33242
G1 X112.932 Y103.247 E5.35915
G1 X113.204 Y103.398 E5.37468
G1 X120.368 Y107.787 E5.79383
G1 X128.018 Y111.854 E6.22607
G1 X128.472 Y112.141 E6.25287
G1 X128.832 Y112.446 E6.27641
G1 X129.396 Y112.992 E6.31557
G1 X129.752 Y113.393 E6.34233
G1 X129.972 Y113.716 E6.36182
G1 X130.56 Y114.688 E6.4185
G1 X130.803 Y115.166 E6.44525
G1 X130.939 Y115.552 E6.46567
G1 X131.174 Y116.366 E6.50794
G1 X131.303 Y117.069 E6.5436
G1 X131.356 Y117.711 E6.57574
G1 X131.36 Y118.247 E6.60248
G1 X131.317 Y118.613 E6.62086
G1 X131.107 Y119.843 E6.68312
G1 X130.977 Y120.363 E6.70986
G1 X130.807 Y120.787 E6.73265
G1 X130.452 Y121.531 E6.77377
G1 X130.186 Y121.997 E6.80054
G1 X129.913 Y122.351 E6.82285
G1 X129.103 Y123.277 E6.88423
G1 X128.72 Y123.653 E6.911
G1 X128.38 Y123.909 E6.93224
G1 X127.729 Y124.34 E6.97119
G1 X127.157 Y124.648 E7.0036
G1 X122.481 Y126.647 E7.25731
G1 X117.566 Y129.04 E7.53004
G1 X111.644 Y132.401 E7.86976
G1 X111.326 Y132.561 E7.88752
G1 X110.638 Y132.866 E7.92506
G1 X110.133 Y133.046 E7.95181
G1 X109.824 Y133.117 E7.96763
G1 X108.813 Y133.301 E8.01889
G1 X108.279 Y133.357 E8.04568
G1 X107.874 Y133.347 E8.06589
G1 X106.909 Y133.268 E8.1142
G1 X106.38 Y133.185 E8.14091
G1 X105.923 Y133.045 E8.16476
G1 X104.861 Y132.641 E8.22145
G1 X104.375 Y132.413 E8.24823
G1 X104.01 Y132.178 E8.26989
G1 X103.291 Y131.65 E8.31439
G1 X102.884 Y131.301 E8.34114
G1 X102.607 Y130.992 E8.36184
G1 X101.934 Y130.148 E8.4157
G1 X101.632 Y129.705 E8.44245
G1 X101.403 Y129.231 E8.46871
G1 X100.979 Y128.162 E8.52608
G1 X100.819 Y127.65 E8.55285
G1 X100.75 Y127.261 E8.57256
G1 X100.656 Y126.472 E8.6122
G1 X100.644 Y125.746 E8.64842
G1 X100.705 Y125.017 E8.68492
G1 X100.746 Y124.694 E8.70116
G1 X101.728 Y119.102 E8.98442
G1 X102.363 Y113.702 E9.25568
G1 X102.658 Y109.359 E9.47286
G1 X102.719 Y108.9 E9.49596
G1 X102.851 Y108.237 E9.52968
G1 X102.995 Y107.72 E9.55646
G1 X103.125 Y107.406 E9.57341
G1 X103.627 Y106.34 E9.6322
G1 X103.891 Y105.873 E9.65896
G1 X104.128 Y105.558 E9.67863
G1 X104.612 Y104.982 E9.71616
G1 X104.986 Y104.598 E9.74291
G0 F600 X105.273 Y104.879
G1 F1200 X105.525 Y104.682 E9.75886
G1 X106.503 Y103.993 E9.81855
G1 X106.938 Y103.735 E9.84378
G1 X107.286 Y103.59 E9.86259
G1 X108.112 Y103.3 E9.90627
G1 X108.785 Y103.143 E9.94074
G1 X109.531 Y103.052 E9.97824
G1 X110.036 Y103.03 E10.00346
G1 X110.299 Y103.051 E10.01662
G1 X111.357 Y103.178 E10.06978
G1 X111.964 Y103.311 E10.10078
G1 X112.312 Y103.424 E10.11904
G1 X112.996 Y103.739 E10.15661
G1 X120.19 Y108.146 E10.57751
G1 X127.83 Y112.208 E11.00919
G1 X128.257 Y112.479 E11.03442
G1 X128.554 Y112.734 E11.05395
G1 X129.118 Y113.28 E11.09312
G1 X129.452 Y113.659 E11.11832
G1 X129.63 Y113.923 E11.13421
G1 X130.218 Y114.895 E11.19088
G1 X130.445 Y115.347 E11.21612
G1 X130.554 Y115.663 E11.23279
G1 X130.789 Y116.477 E11.27506
G1 X130.904 Y117.102 E11.30677
G1 X130.957 Y117.744 E11.33891
G1 X130.959 Y118.249 E11.3641
G1 X130.922 Y118.546 E11.37903
G1 X130.712 Y119.776 E11.44129
G1 X130.588 Y120.266 E11.4665
G1 X130.446 Y120.615 E11.4853
G1 X130.091 Y121.359 E11.52643
G1 X129.838 Y121.797 E11.55166
G1 X129.612 Y122.088 E11.57004
G1 X128.802 Y123.014 E11.63142
G1 X128.44 Y123.367 E11.65665
G1 X128.16 Y123.575 E11.67405
G1 X127.509 Y124.006 E11.713
G1 X127 Y124.28 E11.74184
G1 X122.311 Y126.285 E11.99627
G1 X117.378 Y128.687 E12.27
G1 X111.446 Y132.053 E12.61027
G1 X111.164 Y132.195 E12.62603
G1 X110.476 Y132.5 E12.66357
G1 X109.999 Y132.668 E12.6888
G1 X109.752 Y132.723 E12.70143
G1 X108.741 Y132.907 E12.75269
G1 X108.238 Y132.958 E12.77792
G1 X107.907 Y132.948 E12.79444
G1 X106.942 Y132.869 E12.84274
G1 X106.443 Y132.788 E12.86796
G1 X106.065 Y132.671 E12.88771
G1 X105.003 Y132.267 E12.94439
G1 X104.546 Y132.05 E12.96963
G1 X104.247 Y131.855 E12.98744
G1 X103.528 Y131.327 E13.03195
G1 X103.145 Y130.997 E13.05717
G1 X102.92 Y130.743 E13.0741
G1 X102.247 Y129.899 E13.12795
G1 X101.964 Y129.48 E13.15318
G1 X101.774 Y129.084 E13.17509
G1 X101.35 Y128.015 E13.23247
G1 X101.202 Y127.532 E13.25767
G1 X101.147 Y127.214 E13.27377
G1 X101.053 Y126.425 E13.31341
G1 X101.042 Y125.779 E13.34565
G1 X101.103 Y125.05 E13.38214
G1 X101.14 Y124.763 E13.39658
G1 X102.124 Y119.164 E13.6802
G1 X102.762 Y113.736 E13.95286
G1 X103.057 Y109.386 E14.17038
G1 X103.112 Y108.978 E14.19092
G1 X103.244 Y108.315 E14.22465
G1 X103.381 Y107.829 E14.24984
G1 X103.487 Y107.577 E14.26348
G1 X103.989 Y106.511 E14.32227
G1 X104.24 Y106.072 E14.3475
G1 X104.434 Y105.815 E14.36356
G1 X104.918 Y105.239 E14.40109
G1 X105.273 Y104.879 E14.42632
G1 F1500 E7.92632
;MESH:Roller.STL
G0 F600 X110.492 Y106.857
;TYPE:WALL-INNER
G1 F1500 E14.42632
G1 F600 X110.809 Y106.922 E14.44246
G1 X111.125 Y107.024 E14.45903
G1 X111.416 Y107.152 E14.47489
G1 X111.71 Y107.317 E14.49171
G1 X111.969 Y107.501 E14.50756
G1 X112.218 Y107.72 E14.5241
G1 X112.44 Y107.96 E14.54041
G1 X112.636 Y108.22 E14.55666
G1 X112.805 Y108.504 E14.57315
G1 X112.945 Y108.8 E14.58948
G1 X113.048 Y109.1 E14.60531
G1 X113.127 Y109.434 E14.62243
G1 X113.168 Y109.744 E14.63803
G1 X113.177 Y110.001 E14.65086
G1 X113.143 Y110.443 E14.67298
G1 X113.081 Y110.764 E14.68929
G1 X113.001 Y111.042 E14.70372
G1 X112.876 Y111.345 E14.72007
G1 X112.725 Y111.63 E14.73616
G1 X112.543 Y111.9 E14.75241
G1 X112.321 Y112.168 E14.76977
G1 X112.102 Y112.381 E14.78501
G1 X111.847 Y112.583 E14.80124
G1 X111.561 Y112.764 E14.81813
G1 X111.269 Y112.911 E14.83444
G1 X110.969 Y113.024 E14.85043
G1 X110.658 Y113.105 E14.86647
G1 X110.328 Y113.158 E14.88314
G1 X109.999 Y113.174 E14.89957
G1 X109.67 Y113.158 E14.91601
G1 X109.34 Y113.105 E14.93268
G1 X109.029 Y113.024 E14.94871
G1 X108.729 Y112.911 E14.96471
G1 X108.437 Y112.764 E14.98102
G1 X108.151 Y112.583 E14.9979
G1 X107.896 Y112.381 E15.01413
G1 X107.677 Y112.168 E15.02938
G1 X107.455 Y111.9 E15.04674
G1 X107.275 Y111.634 E15.06276
G1 X107.115 Y111.333 E15.07977
G1 X106.998 Y111.045 E15.09528
G1 X106.909 Y110.737 E15.11127
G1 X106.846 Y110.393 E15.12872
G1 X106.822 Y110.082 E15.14428
G1 X106.83 Y109.75 E15.16085
G1 X106.872 Y109.43 E15.17695
G1 X106.948 Y109.108 E15.19346
G1 X107.057 Y108.799 E15.2098
G1 X107.192 Y108.505 E15.22594
G1 X107.365 Y108.217 E15.24271
G1 X107.558 Y107.96 E15.25874
G1 X107.78 Y107.72 E15.27505
G1 X108.023 Y107.506 E15.29121
G1 X108.295 Y107.314 E15.30782
G1 X108.58 Y107.152 E15.32417
G1 X108.878 Y107.022 E15.34039
G1 X109.184 Y106.923 E15.35644
G1 X109.506 Y106.857 E15.37284
G1 X109.838 Y106.822 E15.38949
G1 X110.16 Y106.822 E15.40556
G1 X110.492 Y106.857 E15.42221
G1 F1500 E8.92221
G0 F600 X112.552 Y109.996
G1 F1500 E15.42221
G1 F600 X112.511 Y109.554 E15.44436
G1 X112.396 Y109.125 E15.46652
G1 X112.209 Y108.722 E15.48868
G1 X111.954 Y108.356 E15.51094
G1 X111.639 Y108.042 E15.53313
G1 X111.274 Y107.787 E15.55534
G1 X110.872 Y107.599 E15.57748
G1 X110.442 Y107.484 E15.59969
G1 X109.999 Y107.444 E15.62188
G1 X109.556 Y107.484 E15.64407
G1 X109.126 Y107.599 E15.66628
G1 X108.724 Y107.787 E15.68842
G1 X108.359 Y108.042 E15.71063
G1 X108.044 Y108.356 E15.73282
G1 X107.789 Y108.722 E15.75507
G1 X107.602 Y109.125 E15.77724
G1 X107.487 Y109.554 E15.7994
G1 X107.447 Y109.996 E15.82154
G1 X107.487 Y110.439 E15.84373
G1 X107.602 Y110.869 E15.86594
G1 X107.789 Y111.271 E15.88806
G1 X108.044 Y111.636 E15.91027
G1 X108.359 Y111.951 E15.9325
G1 X108.724 Y112.206 E15.95471
G1 X109.127 Y112.394 E15.9769
G1 X109.556 Y112.508 E15.99904
G1 X109.999 Y112.549 E16.02124
G1 X110.442 Y112.508 E16.04343
G1 X110.871 Y112.394 E16.06558
G1 X111.274 Y112.206 E16.08776
G1 X111.638 Y111.951 E16.10994
G1 X111.955 Y111.637 E16.1322
G1 X112.209 Y111.27 E16.15446
G1 X112.396 Y110.869 E16.17654
G1 X112.511 Y110.439 E16.19875
G1 X112.552 Y109.996 E16.22094
G1 F1500 E9.72094
G0 F600 X111.647 Y111.379
;TYPE:WALL-OUTER
G1 F1500 E16.22094
G1 F600 X111.861 Y111.07 E16.23969
G1 X112.019 Y110.732 E16.25831
G1 X112.116 Y110.369 E16.27705
G1 X112.15 Y109.996 E16.29574
G1 X112.116 Y109.624 E16.31438
G1 X112.019 Y109.262 E16.33307
G1 X111.861 Y108.922 E16.35178
G1 X111.646 Y108.614 E16.37052
G1 X111.381 Y108.35 E16.38918
G1 X111.073 Y108.135 E16.40792
G1 X110.734 Y107.976 E16.4266
G1 X110.372 Y107.879 E16.4453
G1 X109.999 Y107.846 E16.46398
G1 X109.626 Y107.879 E16.48266
G1 X109.264 Y107.976 E16.50136
G1 X108.925 Y108.135 E16.52004
G1 X108.617 Y108.35 E16.53878
G1 X108.352 Y108.614 E16.55744
G1 X108.137 Y108.922 E16.57618
G1 X107.979 Y109.262 E16.59489
G1 X107.882 Y109.624 E16.61358
G1 X107.849 Y109.996 E16.63222
G1 X107.882 Y110.369 E16.6509
G1 X107.979 Y110.732 E16.66964
G1 X108.137 Y111.07 E16.68826
G1 X108.352 Y111.378 E16.707
G1 X108.617 Y111.643 E16.72569
G1 X108.925 Y111.858 E16.74443
G1 X109.264 Y112.017 E16.76311
G1 X109.626 Y112.113 E16.7818
G1 X109.999 Y112.147 E16.80048
G1 X110.372 Y112.113 E16.81917
G1 X110.734 Y112.017 E16.83786
G1 X111.073 Y111.858 E16.85654
G1 X111.381 Y111.643 E16.87528
G1 X111.647 Y111.379 E16.89397
G0 X111.761 Y111.215
G1 F1500 E10.39397
G0 F600 X110.552 Y106.461
G1 F1500 E16.89397
G1 F600 X110.913 Y106.535 E16.91236
G1 X111.263 Y106.648 E16.93071
G1 X111.599 Y106.796 E16.94902
G1 X111.918 Y106.975 E16.96727
G1 X112.223 Y107.191 E16.98592
G1 X112.494 Y107.43 E17.00395
G1 X112.749 Y107.705 E17.02266
G1 X112.966 Y107.994 E17.04069
G1 X113.16 Y108.319 E17.05957
G1 X113.315 Y108.648 E17.07771
G1 X113.433 Y108.991 E17.09581
G1 X113.522 Y109.364 E17.11494
G1 X113.567 Y109.711 E17.1324
G1 X113.578 Y110.008 E17.14723
G1 X113.54 Y110.497 E17.1717
G1 X113.47 Y110.859 E17.19009
G1 X113.381 Y111.17 E17.20623
G1 X113.241 Y111.51 E17.22458
G1 X113.066 Y111.84 E17.24321
G1 X112.861 Y112.145 E17.26154
G1 X112.621 Y112.434 E17.28029
G1 X112.367 Y112.68 E17.29793
G1 X112.073 Y112.913 E17.31664
G1 X111.761 Y113.111 E17.33508
G1 X111.431 Y113.277 E17.35351
G1 X111.088 Y113.406 E17.37179
G1 X110.739 Y113.497 E17.38978
G1 X110.367 Y113.557 E17.40858
G1 X109.999 Y113.575 E17.42697
G1 X109.631 Y113.557 E17.44535
G1 X109.259 Y113.497 E17.46415
G1 X108.91 Y113.406 E17.48214
G1 X108.567 Y113.277 E17.50042
G1 X108.237 Y113.111 E17.51885
G1 X107.925 Y112.913 E17.53729
G1 X107.631 Y112.68 E17.556
G1 X107.377 Y112.434 E17.57364
G1 X107.137 Y112.145 E17.59239
G1 X106.932 Y111.84 E17.61072
G1 X106.754 Y111.505 E17.62965
G1 X106.62 Y111.176 E17.64737
G1 X106.517 Y110.821 E17.66581
G1 X106.449 Y110.447 E17.68478
G1 X106.421 Y110.094 E17.70244
G1 X106.431 Y109.716 E17.72131
G1 X106.477 Y109.364 E17.73902
G1 X106.564 Y108.995 E17.75793
G1 X106.685 Y108.651 E17.77612
G1 X106.84 Y108.314 E17.79463
G1 X107.032 Y107.994 E17.81325
G1 X107.249 Y107.705 E17.83128
G1 X107.504 Y107.43 E17.84999
G1 X107.775 Y107.191 E17.86802
G1 X108.076 Y106.978 E17.88641
G1 X108.402 Y106.793 E17.90511
G1 X108.734 Y106.649 E17.92317
G1 X109.085 Y106.535 E17.94158
G1 X109.446 Y106.461 E17.95997
G1 X109.815 Y106.422 E17.97848
G1 X110.183 Y106.422 E17.99684
G1 X110.552 Y106.461 E18.01535
G0 X110.748 Y106.501
G1 F1500 E11.51535
G0 F600 X111.978 Y108.018
;TYPE:SKIN
G1 F1500 E18.01535
G1 F600 X112.783 Y109.389 E18.08315
G1 X112.804 Y110.541 E18.13229
G1 X112.282 Y111.716 E18.18712
G1 X111.373 Y112.504 E18.23843
G1 X110.023 Y112.852 E18.29788
G1 X109.386 Y112.78 E18.32522
G1 X108.015 Y111.975 E18.39302
G1 X107.214 Y110.608 E18.46059
G1 X107.19 Y109.453 E18.50986
G1 X107.712 Y108.278 E18.56469
G1 X108.621 Y107.49 E18.61599
G1 X109.966 Y107.137 E18.6753
G1 X110.603 Y107.209 E18.70264
G1 F1500 E12.20264
;MESH:Roller.STL(1)(1)
G0 F600 X124.492 Y114.857
;TYPE:WALL-INNER
G1 F1500 E18.70264
G1 F600 X124.809 Y114.922 E18.71878
G1 X125.125 Y115.024 E18.73535
G1 X125.416 Y115.152 E18.75121
G1 X125.71 Y115.317 E18.76803
G1 X125.969 Y115.501 E18.78388
G1 X126.218 Y115.72 E18.80042
G1 X126.44 Y115.96 E18.81673
G1 X126.636 Y116.22 E18.83298
G1 X126.805 Y116.504 E18.84946
G1 X126.945 Y116.8 E18.8658
G1 X127.048 Y117.1 E18.88162
G1 X127.127 Y117.434 E18.89875
G1 X127.168 Y117.744 E18.91435
G1 X127.177 Y118.001 E18.92718
G1 X127.143 Y118.443 E18.94929
G1 X127.081 Y118.764 E18.96561
G1 X127.001 Y119.042 E18.98004
G1 X126.876 Y119.345 E18.99639
G1 X126.725 Y119.63 E19.01248
G1 X126.543 Y119.9 E19.02873
G1 X126.321 Y120.168 E19.04609
G1 X126.102 Y120.381 E19.06133
G1 X125.847 Y120.583 E19.07756
G1 X125.561 Y120.764 E19.09445
G1 X125.269 Y120.911 E19.11076
G1 X124.969 Y121.024 E19.12675
G1 X124.658 Y121.105 E19.14278
G1 X124.328 Y121.158 E19.15946
G1 X123.999 Y121.174 E19.17589
G1 X123.67 Y121.158 E19.19232
G1 X123.34 Y121.105 E19.209
G1 X123.029 Y121.024 E19.22503
G1 X122.729 Y120.911 E19.24103
G1 X122.437 Y120.764 E19.25734
