;FLAVOR:Marlin
;TIME:1004
;Filament used: 0.515428m
;Layer height: 0.2
;Generated with Cura_SteamEngine 3.6.0
M140 S60
M105
M190 S60
M104 S210
M105
M109 S210
M82 ;absolute extrusion mode
G21 ;metric values
G90 ;absolute positioning
M82 ;set extruder to absolute mode
M107 ;start with the fan off
G28 X0 Y0 ;move X/Y to min endstops
G28 Z0 ;move Z to min endstops
G1 Z15.0 F9000 ;move the platform down 15mm
G92 E0 ;zero the extruded length
G1 F200 E3 ;extrude 3mm of feed stock
G92 E0 ;zero the extruded length again
G1 F9000;Put printing message on LCD screen
M117 Printing..0
G92 E0
G1 F1500 E-6.5
;LAYER_COUNT:155
;LAYER:0
M107
G0 F600 X104.033 Y103.505 Z0.3
;TYPE:SKIRT
G1 F1500 E0
G1 F1200 X104.49 Y103.086 E0.03093
G1 X104.785 Y102.868 E0.04923
G1 X105.223 Y102.568 E0.07572
G1 X105.922 Y102.171 E0.11582
G1 X106.686 Y101.818 E0.15781
G1 X107.541 Y101.517 E0.20303
G1 X108.217 Y101.349 E0.23779
G1 X108.827 Y101.238 E0.26872
G1 X109.21 Y101.21 E0.28788
G1 X110.167 Y101.177 E0.33565
G1 X110.786 Y101.195 E0.36655
G1 X111.219 Y101.257 E0.38837
G1 X112.033 Y101.41 E0.42969
G1 X112.633 Y101.563 E0.46058
G1 X113.129 Y101.756 E0.48714
G1 X114.143 Y102.216 E0.54269
G1 X114.689 Y102.507 E0.57355
G1 X115.337 Y102.989 E0.61385
G1 X116.294 Y103.834 E0.67754
G1 X116.731 Y104.273 E0.70844
G1 X117.009 Y104.623 E0.73074
G1 X117.302 Y105.029 E0.75572
G1 X117.708 Y105.701 E0.79489
G1 X118.077 Y106.443 E0.83623
G1 X118.406 Y107.303 E0.88217
G1 X118.594 Y107.984 E0.91742
G1 X118.747 Y108.828 E0.96021
G1 X118.815 Y109.578 E0.99778
G1 X118.831 Y110.197 E1.02868
G1 X118.801 Y110.584 E1.04804
G1 X118.693 Y111.482 E1.09316
G1 X118.532 Y112.263 E1.13295
G1 X118.385 Y112.763 E1.15895
G1 X118.073 Y113.556 E1.20146
G1 X117.687 Y114.328 E1.24453
G1 X117.375 Y114.863 E1.27542
G1 X117.146 Y115.175 E1.29473
G1 X116.637 Y115.813 E1.33545
G1 X116.004 Y116.467 E1.38086
G1 X115.459 Y116.933 E1.41663
G1 X114.964 Y117.305 E1.44753
G1 X114.643 Y117.497 E1.46619
G1 X113.809 Y117.953 E1.51361
G1 X113.247 Y118.214 E1.54452
G1 X112.829 Y118.355 E1.56653
G1 X112.037 Y118.582 E1.60764
G1 X111.431 Y118.714 E1.63858
G1 X111.062 Y118.755 E1.6571
G1 X110.223 Y118.816 E1.69907
G1 X109.604 Y118.821 E1.72995
G1 X109.053 Y118.758 E1.75762
G1 X107.92 Y118.561 E1.81499
G1 X107.318 Y118.416 E1.84589
G1 X106.892 Y118.261 E1.8685
G1 X106.334 Y118.028 E1.89867
G1 X105.78 Y117.753 E1.92953
G1 X105.508 Y117.584 E1.94551
G1 X104.662 Y117.016 E1.99634
G1 X104.172 Y116.638 E2.02722
G1 X103.815 Y116.291 E2.05206
G1 X103.245 Y115.675 E2.09393
G1 X102.706 Y114.973 E2.13808
G1 X102.371 Y114.441 E2.16945
G1 X102.076 Y113.896 E2.20037
G1 X101.918 Y113.514 E2.22099
G1 X101.529 Y112.437 E2.27812
G1 X101.357 Y111.842 E2.30902
G1 X101.276 Y111.358 E2.3335
G1 X101.198 Y110.684 E2.36735
G1 X101.166 Y110.065 E2.39828
G1 X101.202 Y109.547 E2.42418
G1 X101.355 Y108.301 E2.48681
G1 X101.47 Y107.692 E2.51773
G1 X101.662 Y107.104 E2.54859
G1 X101.807 Y106.778 E2.56639
G1 X102.427 Y105.51 E2.63681
G1 X102.734 Y104.972 E2.66771
G1 X103.275 Y104.295 E2.71095
G1 X104.033 Y103.505 E2.76557
G0 F600 X104.322 Y103.782
G1 F1200 X104.761 Y103.382 E2.7952
G1 X105.011 Y103.198 E2.81069
G1 X105.449 Y102.898 E2.83717
G1 X106.089 Y102.534 E2.8739
G1 X106.853 Y102.181 E2.91589
G1 X107.638 Y101.905 E2.95741
G1 X108.314 Y101.737 E2.99216
G1 X108.898 Y101.633 E3.02175
G1 X109.223 Y101.61 E3.03801
G1 X110.18 Y101.577 E3.08578
G1 X110.773 Y101.596 E3.11538
G1 X111.145 Y101.65 E3.13413
G1 X111.959 Y101.803 E3.17546
G1 X112.533 Y101.951 E3.20503
G1 X112.964 Y102.12 E3.22813
G1 X113.978 Y102.58 E3.28368
G1 X114.5 Y102.861 E3.31325
G1 X115.072 Y103.289 E3.3489
G1 X116.029 Y104.134 E3.41259
G1 X116.446 Y104.555 E3.44215
G1 X116.685 Y104.857 E3.46137
G1 X116.978 Y105.263 E3.48634
G1 X117.35 Y105.879 E3.52225
G1 X117.719 Y106.621 E3.56359
G1 X118.02 Y107.409 E3.60567
G1 X118.208 Y108.09 E3.64092
G1 X118.349 Y108.864 E3.68017
G1 X118.417 Y109.614 E3.71774
G1 X118.431 Y110.206 E3.74728
G1 X118.404 Y110.536 E3.7638
G1 X118.296 Y111.434 E3.80893
G1 X118.148 Y112.15 E3.8454
G1 X118.001 Y112.65 E3.87141
G1 X117.715 Y113.377 E3.91038
G1 X117.329 Y114.149 E3.95344
G1 X117.029 Y114.66 E3.98301
G1 X116.834 Y114.925 E3.99942
G1 X116.325 Y115.563 E4.04014
G1 X115.744 Y116.163 E4.08181
G1 X115.199 Y116.629 E4.11758
G1 X114.724 Y116.983 E4.14714
G1 X114.451 Y117.146 E4.163
G1 X113.617 Y117.602 E4.21042
G1 X113.079 Y117.85 E4.23998
G1 X112.718 Y117.971 E4.25897
G1 X111.926 Y118.198 E4.30008
G1 X111.347 Y118.322 E4.32962
G1 X111.033 Y118.356 E4.34537
G1 X110.194 Y118.417 E4.38734
G1 X109.601 Y118.42 E4.41693
G1 X109.121 Y118.364 E4.44104
G1 X107.988 Y118.167 E4.49841
G1 X107.412 Y118.026 E4.528
G1 X107.047 Y117.892 E4.54739
G1 X106.489 Y117.659 E4.57756
G1 X105.731 Y117.252 E4.62049
G1 X104.885 Y116.684 E4.67132
G1 X104.416 Y116.321 E4.70091
G1 X104.108 Y116.019 E4.72243
G1 X103.538 Y115.403 E4.7643
G1 X103.045 Y114.76 E4.80473
G1 X102.71 Y114.228 E4.83609
G1 X102.428 Y113.706 E4.86569
G1 X102.295 Y113.378 E4.88335
G1 X101.906 Y112.301 E4.94048
G1 X101.742 Y111.731 E4.97007
G1 X101.673 Y111.312 E4.99126
G1 X101.595 Y110.638 E5.02511
G1 X101.567 Y110.046 E5.05467
G1 X101.599 Y109.596 E5.07718
G1 X101.752 Y108.35 E5.13981
G1 X101.864 Y107.767 E5.16943
G1 X102.166 Y106.953 E5.21275
G1 X102.786 Y105.685 E5.28316
G1 X103.082 Y105.171 E5.31275
G1 X103.564 Y104.572 E5.35111
G1 X104.322 Y103.782 E5.40573
G0 F600 X104.611 Y104.059
G1 F1200 X105.237 Y103.528 E5.44669
G1 X105.675 Y103.228 E5.47317
G1 X106.257 Y102.897 E5.50658
G1 X107.021 Y102.544 E5.54857
G1 X107.734 Y102.293 E5.58628
G1 X108.41 Y102.125 E5.62103
G1 X109.237 Y102.009 E5.66269
G1 X110.194 Y101.976 E5.71047
G1 X110.759 Y101.997 E5.73867
G1 X111.071 Y102.043 E5.75441
G1 X111.885 Y102.196 E5.79573
G1 X112.432 Y102.339 E5.82394
G1 X112.799 Y102.484 E5.84362
G1 X113.813 Y102.944 E5.89917
G1 X114.31 Y103.214 E5.92739
G1 X114.808 Y103.589 E5.95849
G1 X115.765 Y104.434 E6.02219
G1 X116.161 Y104.837 E6.05037
G1 X116.361 Y105.091 E6.0665
G1 X116.654 Y105.497 E6.09148
G1 X116.992 Y106.057 E6.12412
G1 X117.361 Y106.799 E6.16546
G1 X117.635 Y107.516 E6.20375
G1 X117.823 Y108.197 E6.239
G1 X117.951 Y108.9 E6.27465
G1 X118.019 Y109.65 E6.31222
G1 X118.006 Y110.489 E6.35408
G1 X117.898 Y111.387 E6.39921
G1 X117.765 Y112.037 E6.43231
G1 X117.618 Y112.537 E6.45831
G1 X117.358 Y113.198 E6.49375
G1 X116.972 Y113.97 E6.53681
G1 X116.521 Y114.676 E6.5786
G1 X116.012 Y115.314 E6.61932
G1 X115.484 Y115.859 E6.65718
G1 X114.939 Y116.325 E6.69295
G1 X114.259 Y116.795 E6.73419
G1 X113.425 Y117.251 E6.78162
G1 X112.911 Y117.486 E6.80981
G1 X112.608 Y117.586 E6.82573
G1 X111.816 Y117.813 E6.86683
G1 X111.004 Y117.957 E6.90798
G1 X110.165 Y118.018 E6.94995
G1 X109.6 Y118.02 E6.97813
G1 X109.19 Y117.97 E6.99874
G1 X108.057 Y117.773 E7.05611
G1 X107.508 Y117.637 E7.08433
G1 X107.201 Y117.523 E7.10067
G1 X106.643 Y117.29 E7.13084
G1 X105.954 Y116.92 E7.16986
G1 X105.108 Y116.352 E7.22069
G1 X104.662 Y116.004 E7.24892
G1 X104.402 Y115.748 E7.26712
G1 X103.832 Y115.132 E7.30899
G1 X103.383 Y114.546 E7.34582
G1 X103.048 Y114.014 E7.37719
G1 X102.781 Y113.516 E7.40538
G1 X102.671 Y113.242 E7.42011
G1 X102.282 Y112.165 E7.47724
G1 X102.128 Y111.621 E7.50544
G1 X102.071 Y111.266 E7.52338
G1 X101.993 Y110.592 E7.55723
G1 X101.967 Y110.027 E7.58545
G1 X101.996 Y109.644 E7.60461
G1 X102.149 Y108.398 E7.66724
G1 X102.257 Y107.844 E7.6954
G1 X102.526 Y107.129 E7.73352
G1 X103.146 Y105.861 E7.80393
G1 X103.429 Y105.372 E7.83212
G1 X103.853 Y104.849 E7.86571
G1 X104.611 Y104.059 E7.92033
G0 F600 X104.899 Y104.336
G1 F1200 X105.463 Y103.858 E7.95722
G1 X105.901 Y103.558 E7.9837
G1 X106.425 Y103.26 E8.01378
G1 X107.189 Y102.907 E8.05577
G1 X107.831 Y102.681 E8.08972
G1 X108.507 Y102.513 E8.12447
G1 X109.251 Y102.409 E8.16195
G1 X110.208 Y102.376 E8.20973
G1 X110.997 Y102.436 E8.2492
G1 X111.811 Y102.589 E8.29052
G1 X112.329 Y102.727 E8.31727
G1 X112.633 Y102.849 E8.33361
G1 X113.647 Y103.309 E8.38916
G1 X114.118 Y103.566 E8.41593
G1 X114.543 Y103.888 E8.44253
G1 X115.5 Y104.733 E8.50623
G1 X116.036 Y105.325 E8.54607
G1 X116.329 Y105.731 E8.57105
G1 X116.633 Y106.235 E8.60041
G1 X117.002 Y106.977 E8.64176
G1 X117.249 Y107.622 E8.67621
G1 X117.437 Y108.303 E8.71146
G1 X117.552 Y108.936 E8.74356
G1 X117.62 Y109.686 E8.78113
G1 X117.609 Y110.441 E8.8188
G1 X117.501 Y111.339 E8.86392
G1 X117.381 Y111.924 E8.89372
G1 X117.234 Y112.424 E8.91972
G1 X117 Y113.019 E8.95162
G1 X116.614 Y113.791 E8.99468
G1 X116.208 Y114.426 E9.03228
G1 X115.699 Y115.064 E9.073
G1 X115.225 Y115.555 E9.10705
G1 X114.68 Y116.021 E9.14282
G1 X114.067 Y116.444 E9.17998
G1 X113.233 Y116.9 E9.2274
G1 X112.498 Y117.202 E9.26704
G1 X111.706 Y117.429 E9.30815
G1 X110.975 Y117.559 E9.34519
G1 X110.136 Y117.62 E9.38716
G1 X109.6 Y117.618 E9.4139
G1 X109.258 Y117.576 E9.43109
G1 X108.125 Y117.379 E9.48846
G1 X107.355 Y117.154 E9.52849
G1 X106.797 Y116.921 E9.55865
G1 X106.177 Y116.588 E9.59376
G1 X105.331 Y116.02 E9.6446
G1 X104.91 Y115.689 E9.67132
G1 X104.696 Y115.476 E9.68638
G1 X104.126 Y114.86 E9.72825
G1 X103.722 Y114.333 E9.76138
G1 X103.387 Y113.801 E9.79275
G1 X103.047 Y113.106 E9.83135
G1 X102.658 Y112.029 E9.88848
G1 X102.514 Y111.512 E9.91525
G1 X102.468 Y111.22 E9.93
G1 X102.39 Y110.546 E9.96385
G1 X102.368 Y110.01 E9.99062
G1 X102.393 Y109.693 E10.00648
G1 X102.546 Y108.447 E10.06911
G1 X102.651 Y107.921 E10.09587
G1 X102.885 Y107.305 E10.12874
G1 X103.505 Y106.037 E10.19916
G1 X103.776 Y105.574 E10.22593
G1 X104.141 Y105.126 E10.25476
G1 X104.899 Y104.336 E10.30938
G0 F600 X105.188 Y104.613
G1 F1200 X105.689 Y104.188 E10.34216
G1 X106.127 Y103.888 E10.36864
G1 X106.593 Y103.623 E10.39539
G1 X107.357 Y103.27 E10.43738
G1 X107.927 Y103.069 E10.46753
G1 X108.603 Y102.901 E10.50228
G1 X109.265 Y102.809 E10.53563
G1 X110.222 Y102.776 E10.5834
G1 X110.923 Y102.829 E10.61847
G1 X111.737 Y102.982 E10.65979
G1 X112.225 Y103.114 E10.68501
G1 X112.468 Y103.213 E10.69811
G1 X113.482 Y103.673 E10.75366
G1 X113.924 Y103.917 E10.77884
G1 X114.278 Y104.188 E10.80109
G1 X115.235 Y105.033 E10.86478
G1 X115.712 Y105.559 E10.90021
G1 X116.005 Y105.965 E10.92519
G1 X116.275 Y106.413 E10.95128
G1 X116.644 Y107.155 E10.99262
G1 X116.864 Y107.728 E11.02325
G1 X117.052 Y108.409 E11.05849
G1 X117.154 Y108.972 E11.08704
G1 X117.222 Y109.722 E11.12461
G1 X117.212 Y110.393 E11.15809
G1 X117.104 Y111.291 E11.20321
G1 X116.997 Y111.812 E11.22975
G1 X116.85 Y112.312 E11.25575
G1 X116.642 Y112.84 E11.28406
G1 X116.256 Y113.612 E11.32712
G1 X115.895 Y114.177 E11.36057
G1 X115.386 Y114.815 E11.40129
G1 X114.965 Y115.251 E11.43153
G1 X114.42 Y115.717 E11.4673
G1 X113.875 Y116.093 E11.50034
G1 X113.041 Y116.549 E11.54776
G1 X112.388 Y116.817 E11.58297
G1 X111.596 Y117.044 E11.62408
G1 X110.946 Y117.16 E11.65702
G1 X110.107 Y117.221 E11.69899
G1 X109.601 Y117.217 E11.72423
G1 X109.327 Y117.182 E11.73801
G1 X108.194 Y116.985 E11.79539
G1 X107.509 Y116.785 E11.83099
G1 X106.951 Y116.552 E11.86116
G1 X106.4 Y116.256 E11.89236
G1 X105.554 Y115.688 E11.9432
G1 X104.989 Y115.204 E11.98032
G1 X104.419 Y114.588 E12.02219
G1 X104.06 Y114.12 E12.05161
G1 X103.725 Y113.588 E12.08298
G1 X103.423 Y112.97 E12.1173
G1 X103.034 Y111.893 E12.17443
G1 X102.865 Y111.174 E12.21127
G1 X102.787 Y110.5 E12.24512
G1 X102.769 Y109.995 E12.27034
G1 X102.79 Y109.742 E12.283
G1 X102.943 Y108.496 E12.34563
G1 X103.044 Y108.001 E12.37084
G1 X103.244 Y107.48 E12.39868
G1 X103.864 Y106.212 E12.4691
G1 X104.122 Y105.777 E12.49433
G1 X104.43 Y105.403 E12.5185
G1 X105.188 Y104.613 E12.57312
G1 F1500 E6.07312
;MESH:Roller.STL
G0 F600 X107.928 Y108.259
;TYPE:WALL-INNER
G1 F1500 E12.57312
G1 F600 X107.659 Y108.647 E12.59668
G1 X107.461 Y109.072 E12.62007
G1 X107.339 Y109.527 E12.64357
G1 X107.297 Y109.996 E12.66706
G1 X107.339 Y110.465 E12.69055
G1 X107.461 Y110.92 E12.71406
G1 X107.659 Y111.346 E12.73749
G1 X107.929 Y111.732 E12.76099
G1 X108.263 Y112.066 E12.78456
G1 X108.649 Y112.336 E12.80806
G1 X109.075 Y112.534 E12.8315
G1 X109.53 Y112.656 E12.855
G1 X109.999 Y112.699 E12.8785
G1 X110.468 Y112.656 E12.90199
G1 X110.923 Y112.534 E12.92549
G1 X111.349 Y112.336 E12.94893
G1 X111.734 Y112.066 E12.97239
G1 X112.07 Y111.733 E12.99599
G1 X112.339 Y111.345 E13.01955
G1 X112.537 Y110.92 E13.04294
G1 X112.659 Y110.465 E13.06644
G1 X112.702 Y109.996 E13.08994
G1 X112.659 Y109.527 E13.11343
G1 X112.537 Y109.072 E13.13694
G1 X112.339 Y108.646 E13.16037
G1 X112.069 Y108.26 E13.18387
G1 X111.735 Y107.926 E13.20744
G1 X111.349 Y107.656 E13.23094
G1 X110.923 Y107.458 E13.25438
G1 X110.468 Y107.336 E13.27788
G1 X109.999 Y107.294 E13.30137
G1 X109.53 Y107.336 E13.32486
G1 X109.075 Y107.458 E13.34836
G1 X108.649 Y107.656 E13.3718
G1 X108.264 Y107.926 E13.39526
G1 X107.928 Y108.259 E13.41886
G1 F1500 E6.91886
G0 F600 X110.526 Y106.591
G1 F1500 E13.41886
G1 F600 X110.887 Y106.667 E13.43727
G1 X111.207 Y106.769 E13.45402
G1 X111.543 Y106.917 E13.47234
G1 X111.848 Y107.088 E13.48979
G1 X112.139 Y107.295 E13.5076
G1 X112.4 Y107.524 E13.52493
G1 X112.653 Y107.797 E13.5435
G1 X112.854 Y108.066 E13.56025
G1 X113.038 Y108.375 E13.57819
G1 X113.187 Y108.69 E13.59558
G1 X113.309 Y109.039 E13.61402
G1 X113.388 Y109.378 E13.63139
G1 X113.434 Y109.725 E13.64885
G1 X113.444 Y110.002 E13.66268
G1 X113.408 Y110.477 E13.68644
G1 X113.339 Y110.834 E13.70458
G1 X113.256 Y111.124 E13.71963
G1 X113.118 Y111.458 E13.73766
G1 X112.954 Y111.769 E13.7552
G1 X112.754 Y112.066 E13.77307
G1 X112.522 Y112.345 E13.79117
G1 X112.283 Y112.577 E13.80779
G1 X111.996 Y112.805 E13.82608
G1 X111.696 Y112.994 E13.84377
G1 X111.375 Y113.156 E13.8617
G1 X111.046 Y113.28 E13.87924
G1 X110.711 Y113.367 E13.89651
G1 X110.359 Y113.423 E13.91429
G1 X109.999 Y113.44 E13.93228
G1 X109.639 Y113.423 E13.95026
G1 X109.287 Y113.367 E13.96804
G1 X108.952 Y113.28 E13.98531
G1 X108.623 Y113.156 E14.00285
G1 X108.302 Y112.994 E14.02078
G1 X108.002 Y112.805 E14.03847
G1 X107.715 Y112.577 E14.05676
G1 X107.476 Y112.345 E14.07338
G1 X107.244 Y112.066 E14.09148
G1 X107.044 Y111.769 E14.10935
G1 X106.88 Y111.458 E14.12689
G1 X106.743 Y111.126 E14.14481
G1 X106.648 Y110.797 E14.16189
G1 X106.581 Y110.428 E14.1806
G1 X106.555 Y110.089 E14.19756
G1 X106.564 Y109.724 E14.21578
G1 X106.609 Y109.381 E14.23304
G1 X106.692 Y109.03 E14.25103
G1 X106.808 Y108.698 E14.26858
G1 X106.955 Y108.382 E14.28596
G1 X107.147 Y108.062 E14.30458
G1 X107.345 Y107.797 E14.32109
G1 X107.598 Y107.524 E14.33966
G1 X107.859 Y107.295 E14.35698
G1 X108.154 Y107.086 E14.37502
G1 X108.459 Y106.914 E14.39249
G1 X108.783 Y106.771 E14.41015
G1 X109.111 Y106.667 E14.42732
G1 X109.472 Y106.591 E14.44573
G1 X109.823 Y106.555 E14.46333
G1 X110.175 Y106.555 E14.48089
G1 X110.526 Y106.591 E14.49849
G0 X110.591 Y106.196
;TYPE:WALL-OUTER
G1 X110.985 Y106.278 E14.51857
G1 X111.351 Y106.395 E14.53774
G1 X111.722 Y106.559 E14.55798
G1 X112.061 Y106.749 E14.57737
G1 X112.389 Y106.982 E14.59744
G1 X112.681 Y107.238 E14.61681
G1 X112.954 Y107.533 E14.63687
G1 X113.187 Y107.845 E14.65629
G1 X113.395 Y108.193 E14.67652
G1 X113.558 Y108.538 E14.69556
G1 X113.691 Y108.919 E14.71569
G1 X113.784 Y109.315 E14.73598
G1 X113.833 Y109.69 E14.75485
G1 X113.845 Y110.008 E14.77073
G1 X113.805 Y110.532 E14.79695
G1 X113.73 Y110.921 E14.81671
G1 X113.633 Y111.258 E14.83421
G1 X113.483 Y111.623 E14.85389
G1 X113.295 Y111.978 E14.87394
G1 X113.075 Y112.305 E14.8936
G1 X112.817 Y112.615 E14.91372
G1 X112.543 Y112.882 E14.93281
G1 X112.228 Y113.131 E14.95284
G1 X111.896 Y113.341 E14.97244
G1 X111.537 Y113.522 E14.9925
G1 X111.165 Y113.662 E15.01233
G1 X110.794 Y113.759 E15.03146
G1 X110.394 Y113.822 E15.05166
G1 X109.999 Y113.841 E15.07139
G1 X109.604 Y113.822 E15.09112
G1 X109.204 Y113.759 E15.11132
G1 X108.833 Y113.662 E15.13045
G1 X108.461 Y113.522 E15.15028
G1 X108.102 Y113.341 E15.17034
G1 X107.77 Y113.131 E15.18994
G1 X107.455 Y112.882 E15.20997
G1 X107.181 Y112.615 E15.22906
G1 X106.923 Y112.305 E15.24918
G1 X106.703 Y111.978 E15.26884
G1 X106.515 Y111.623 E15.28888
G1 X106.366 Y111.26 E15.30846
G1 X106.257 Y110.883 E15.32804
